src/styles/icons/size(28*28)(30*30)/heart_blank_28dp.svg

<svg width="28" height="28" fill="current" xmlns="http://www.w3.org/2000/svg"><path d="M19.675 4C23.1687 4 26 6.83784 26 10.8108 26 18.7568 17.375 23.2973 14.5 25 11.625 23.2973 3 18.7568 3 10.8108 3 6.83784 5.875 4 9.325 4c2.139 0 4.025 1.13514 5.175 2.27027C15.65 5.13514 17.536 4 19.675 4Zm-4.1009 17.7126c1.0131-.6311 1.9274-1.2588 2.783-1.9308 3.4281-2.6903 5.3429-5.6303 5.3429-8.971 0-2.67891-1.7676-4.54053-4.025-4.54053-1.2374 0-2.576.64703-3.5489 1.60508L14.5 9.48043l-1.6261-1.60508c-.9729-.95805-2.3115-1.60508-3.5489-1.60508-2.231 0-4.025 1.87978-4.025 4.54053 0 3.3418 1.9159 6.2807 5.3418 8.971.8567.672 1.7709 1.2997 2.7841 1.9297.3438.2146.6842.42 1.0741.6493.3898-.2293.7302-.4347 1.0741-.6482Z"/></svg>

<svg width="28" height="28" viewBox="0 0 28 28" fill="current" xmlns="http://www.w3.org/2000/svg">
<path d="M19.675 4C23.1687 4 26 6.83784 26 10.8108C26 18.7568 17.375 23.2973 14.5 25C11.625 23.2973 3 18.7568 3 10.8108C3 6.83784 5.875 4 9.325 4C11.464 4 13.35 5.13514 14.5 6.27027C15.65 5.13514 17.536 4 19.675 4ZM15.5741 21.7126C16.5872 21.0815 17.5015 20.4538 18.3571 19.7818C21.7852 17.0915 23.7 14.1515 23.7 10.8108C23.7 8.13189 21.9324 6.27027 19.675 6.27027C18.4376 6.27027 17.099 6.9173 16.1261 7.87535L14.5 9.48043L12.8739 7.87535C11.901 6.9173 10.5624 6.27027 9.325 6.27027C7.094 6.27027 5.3 8.15005 5.3 10.8108C5.3 14.1526 7.2159 17.0915 10.6418 19.7818C11.4985 20.4538 12.4127 21.0815 13.4259 21.7115C13.7697 21.9261 14.1101 22.1315 14.5 22.3608C14.8898 22.1315 15.2302 21.9261 15.5741 21.7126V21.7126Z" fill="current"/>
</svg>
